X:89
T:Miller o' Hirn, The
R:Strathspey
C:J. Scott Skinner
S:MacDonald - Skye Collection
N:pg.67
M:C
L:1/8
K:D
D>E F)E G/F/E/D/ C<A, ~A,>C|D>E F<B A<F D2|
B,>D (C<A) F<D D2:|
A>G (F<d) B<(G ~G2)|B>A ^G<e c<A A>B|A>G (F<d) B>A (G<B)|
c>B A<a f<d ~d>B|A>G (F<d) B<(G ~G2)|B>A (^G<e) c<A A>c|
(3dAB (3cde (3fde (3fga|(3bag (3fed (3cBA (3GFE||
